P2
20 20
255
0 0 0 0 0 0 0 0 0 0 0 0 0 0 0 0 0 0 0 0 0 0 0 0 0 0 0 0 0 0 0 0 0 0 0
0 0 0 0 0 0 0 0 0 0 0 6 0 6 0 6 0 6 0 0 0 0 0 0 0 0 0 0 0 0 6 118 6
118 6 118 6 118 6 6 0 0 0 0 0 0 0 0 0 118 174 174 118 174 118 174 118
174 118 172 6 0 0 0 0 0 0 0 0 6 174 174 172 174 174 174 174 174 174
174 118 0 0 0 0 0 0 0 6 172 174 174 174 174 174 174 174 174 174 174
174 6 0 0 0 0 0 0 118 174 174 174 174 174 174 174 174 174 174 174 174
118 0 0 0 0 0 0 0 6 174 59 230 163 163 232 59 59 174 174 174 6 0 0 0
0 0 0 0 6 59 59 230 163 163 230 59 59 59 6 6 0 0 0 0 0 0 0 0 0 6 111
232 227 227 111 215 227 174 6 0 0 0 0 0 0 0 0 0 0 6 159 230 227 227
159 230 227 227 6 0 0 0 0 0 0 0 0 0 0 6 0 194 227 194 227 207 181 6
194 0 0 0 0 0 0 0 0 0 0 0 6 33 33 65 33 33 33 33 6 0 0 0 0 0 0 0 0 0
0 6 6 33 33 65 33 33 6 33 33 6 0 0 0 0 0 0 0 0 6 33 6 33 65 65 65 33
6 33 33 6 0 0 0 0 0 0 0 0 6 227 6 33 33 65 33 33 6 232 227 6 0 0 0 0
0 0 0 0 0 6 6 65 33 65 33 33 65 6 6 0 0 0 0 0 0 0 0 0 0 0 6 33 33 65
33 33 33 6 0 0 0 0 0 0 0 0 0 0 0 0 6 230 6 0 0 6 230 6 0 0 0 0 0 0
